public/img/Hero/Infinix_NFT.svg

<svg width="567" height="80" viewBox="0 0 567 80" fill="none" xmlns="http://www.w3.org/2000/svg">
<rect width="566.094" height="79" transform="translate(0.09375 0.604736)" />
<path d="M64.4689 16.0505C57.5701 16.0505 51.348 19.0292 46.9938 23.7786L54.7873 35.6522C56.4651 31.9417 60.173 29.3572 64.4689 29.3572C70.3387 29.3572 75.1136 34.1782 75.1136 40.1048C75.1136 46.0314 70.3387 50.8525 64.4689 50.8525C60.4999 50.8525 57.2178 48.5366 55.2054 45.3891C44.9536 29.3572 46.4996 31.6116 43.182 26.3811C42.376 25.1093 41.4079 23.7914 41.1646 23.5329C36.823 18.9268 30.6973 16.0505 23.9176 16.0505C10.7815 16.0505 0.09375 26.8417 0.09375 40.1048C0.09375 53.3679 10.7815 64.1591 23.9176 64.1591C30.8519 64.1591 37.1018 61.1523 41.4586 56.3619L33.7183 44.2989C32.0963 48.1476 28.3149 50.8525 23.9176 50.8525C18.0478 50.8525 13.2729 46.0314 13.2729 40.1048C13.2729 34.1782 18.0478 29.3572 23.9176 29.3572C27.8333 29.3572 31.1535 31.5707 33.1101 34.6952C41.1519 47.5258 41.8996 48.5212 45.3794 53.977C46.2766 55.3818 47.7263 57.2115 48.2002 57.6593C52.4606 61.6871 58.1834 64.1591 64.4689 64.1591C77.6049 64.1591 88.2927 53.3679 88.2927 40.1048C88.2927 26.8417 77.6049 16.0505 64.4689 16.0505Z" fill="#03D9C5"/>
<path d="M110.829 65.6047V18.6703H119.397V65.6047H110.829ZM127.731 65.6047V31.3331H135.48V38.0741L134.85 36.8771C135.648 34.8191 136.95 33.2651 138.756 32.2151C140.604 31.1231 142.746 30.5771 145.182 30.5771C147.702 30.5771 149.928 31.1231 151.86 32.2151C153.834 33.3071 155.367 34.8401 156.459 36.8141C157.551 38.7461 158.097 40.993 158.097 43.555V65.6047H149.844V45.508C149.844 43.996 149.55 42.694 148.962 41.602C148.374 40.51 147.555 39.67 146.505 39.082C145.497 38.4521 144.3 38.1371 142.914 38.1371C141.57 38.1371 140.373 38.4521 139.323 39.082C138.273 39.67 137.454 40.51 136.866 41.602C136.278 42.694 135.984 43.996 135.984 45.508V65.6047H127.731ZM169.045 65.6047V38.7041H162.997V31.3331H169.045V30.1991C169.045 27.5952 169.57 25.3902 170.62 23.5842C171.712 21.7362 173.224 20.3293 175.156 19.3633C177.088 18.3973 179.377 17.9143 182.023 17.9143C182.527 17.9143 183.072 17.9563 183.66 18.0403C184.29 18.0823 184.815 18.1453 185.235 18.2293V25.3482C184.815 25.2642 184.416 25.2222 184.038 25.2222C183.702 25.1802 183.387 25.1592 183.093 25.1592C181.246 25.1592 179.818 25.5792 178.81 26.4192C177.802 27.2172 177.298 28.4772 177.298 30.1991V31.3331H192.291V38.7041H177.298V65.6047H169.045ZM189.204 65.6047V31.3331H197.52V65.6047H189.204ZM204.389 65.6047V31.3331H212.138V38.0741L211.508 36.8771C212.306 34.8191 213.608 33.2651 215.414 32.2151C217.262 31.1231 219.404 30.5771 221.84 30.5771C224.359 30.5771 226.585 31.1231 228.517 32.2151C230.491 33.3071 232.024 34.8401 233.116 36.8141C234.208 38.7461 234.754 40.993 234.754 43.555V65.6047H226.501V45.508C226.501 43.996 226.207 42.694 225.619 41.602C225.031 40.51 224.212 39.67 223.163 39.082C222.155 38.4521 220.958 38.1371 219.572 38.1371C218.228 38.1371 217.031 38.4521 215.981 39.082C214.931 39.67 214.112 40.51 213.524 41.602C212.936 42.694 212.642 43.996 212.642 45.508V65.6047H204.389ZM241.733 65.6047V31.3331H249.986V65.6047H241.733ZM241.733 27.4902V18.6703H249.986V27.4902H241.733ZM254.519 65.6047L266.489 48.4059L254.456 31.3331H264.158L273.545 45.193H269.198L278.585 31.3331H288.224L276.254 48.4059L288.161 65.6047H278.522L269.261 51.8079H273.482L264.221 65.6047H254.519Z" fill="white"/>
<path d="M307.293 15.8665L307.293 63.975" stroke="white" stroke-width="0.916353"/>
<path d="M327.091 35.6047V18.5377H328.969L338.774 32.3288L337.927 32.4204V18.5377H340.195V35.6047H338.316L328.557 21.722L329.336 21.6304V35.6047H327.091ZM344.004 35.6047V18.5377H354.817V20.5995H346.249V26.1205H354.015V28.1823H346.249V35.6047H344.004ZM360.338 35.6047V20.5995H355.711V18.5377H367.165V20.5995H362.606V35.6047H360.338ZM377.779 35.8796C376.817 35.8796 375.962 35.704 375.213 35.3527C374.465 34.9862 373.877 34.4746 373.449 33.8178C373.037 33.1459 372.831 32.3746 372.831 31.5041C372.831 30.7557 372.968 30.099 373.243 29.5339C373.518 28.9535 373.854 28.4572 374.251 28.0448C374.663 27.6325 375.076 27.2888 375.488 27.0139C375.916 26.7237 376.267 26.4947 376.542 26.3267L377.848 25.5707C378.291 25.311 378.718 25.0285 379.131 24.723C379.543 24.4176 379.887 24.0663 380.162 23.6692C380.436 23.2569 380.574 22.7987 380.574 22.2947C380.574 21.6991 380.375 21.2027 379.978 20.8056C379.581 20.4085 379.085 20.21 378.489 20.21C377.894 20.21 377.397 20.4085 377 20.8056C376.603 21.2027 376.404 21.7067 376.404 22.3176C376.404 22.73 376.504 23.1347 376.702 23.5318C376.901 23.9289 377.145 24.3107 377.435 24.6772C377.726 25.0285 378.016 25.3569 378.306 25.6623L387.584 35.6047H384.766L376.634 27.0368C376.267 26.655 375.9 26.235 375.534 25.7768C375.167 25.3187 374.854 24.8147 374.595 24.2649C374.35 23.6998 374.228 23.0812 374.228 22.4093C374.228 21.5845 374.419 20.8667 374.801 20.2558C375.198 19.6296 375.717 19.1409 376.359 18.7897C377 18.4384 377.71 18.2628 378.489 18.2628C379.253 18.2628 379.948 18.4384 380.574 18.7897C381.215 19.1257 381.727 19.5991 382.109 20.21C382.491 20.8209 382.681 21.5234 382.681 22.3176C382.681 23.1271 382.491 23.8372 382.109 24.4481C381.727 25.0438 381.269 25.5554 380.734 25.983C380.2 26.3954 379.696 26.739 379.222 27.0139L377.939 27.7928C377.558 28.0372 377.153 28.3274 376.725 28.6634C376.298 28.9841 375.931 29.3735 375.626 29.8317C375.32 30.2746 375.167 30.8168 375.167 31.4582C375.167 32.2219 375.412 32.8175 375.9 33.2451C376.404 33.6728 377.054 33.8866 377.848 33.8866C378.352 33.8866 378.802 33.8026 379.199 33.6346C379.596 33.4666 379.948 33.2451 380.253 32.9702C380.574 32.6953 380.856 32.3975 381.101 32.0768C381.345 31.7408 381.574 31.4124 381.788 31.0917L384.423 27.1743H386.874L383.781 31.8935C383.552 32.2753 383.262 32.6953 382.911 33.1535C382.559 33.6117 382.147 34.0469 381.673 34.4593C381.2 34.8717 380.643 35.2153 380.001 35.4902C379.375 35.7498 378.634 35.8796 377.779 35.8796ZM394.52 35.6047V18.5377H396.582L402.973 27.6325H401.919L408.265 18.5377H410.327V35.6047H408.059V21.3784L408.861 21.6304L402.515 30.5648H402.332L396.055 21.6304L396.765 21.3784V35.6047H394.52ZM414.118 35.6047V18.5377H425.228V20.5995H416.363V26.0059H424.77V28.0677H416.363V33.5429H425.228V35.6047H414.118ZM430.989 35.6047V20.5995H426.361V18.5377H437.816V20.5995H433.257V35.6047H430.989ZM437.189 35.6047L443.306 18.5377H445.963L452.08 35.6047H449.674L448.277 31.5957H440.992L439.595 35.6047H437.189ZM441.702 29.5339H447.567L444.314 20.1642H444.955L441.702 29.5339ZM457.491 35.6047L451.328 18.5377H453.734L458.957 33.5429H458.476L463.699 18.5377H466.104L459.965 35.6047H457.491ZM468.258 35.6047V18.5377H479.368V20.5995H470.503V26.0059H478.91V28.0677H470.503V33.5429H479.368V35.6047H468.258ZM482.151 35.6047V18.5377H488.176C489.306 18.5377 490.298 18.7515 491.154 19.1791C492.009 19.6067 492.673 20.2176 493.147 21.0118C493.635 21.806 493.88 22.7376 493.88 23.8067C493.88 25.0132 493.574 26.0365 492.963 26.8765C492.353 27.7165 491.528 28.3197 490.489 28.6863L494.453 35.6047H491.841L487.672 28.2052L489.161 29.0757H484.396V35.6047H482.151ZM484.396 27.0139H488.244C488.916 27.0139 489.504 26.8841 490.008 26.6245C490.512 26.3648 490.902 25.9907 491.177 25.5019C491.467 25.0132 491.612 24.4481 491.612 23.8067C491.612 23.15 491.467 22.5849 491.177 22.1114C490.902 21.6227 490.512 21.2485 490.008 20.9889C489.504 20.7293 488.916 20.5995 488.244 20.5995H484.396V27.0139ZM502.87 35.8796C501.786 35.8796 500.793 35.6811 499.892 35.284C498.991 34.8717 498.227 34.3142 497.601 33.6117C496.975 32.9091 496.524 32.1226 496.249 31.2521L498.197 30.4503C498.609 31.5499 499.22 32.3975 500.029 32.9931C500.854 33.5735 501.816 33.8637 502.916 33.8637C503.588 33.8637 504.176 33.7568 504.68 33.5429C505.184 33.3291 505.573 33.0313 505.848 32.6495C506.138 32.2524 506.284 31.7942 506.284 31.275C506.284 30.5572 506.077 29.9921 505.665 29.5797C505.268 29.1521 504.68 28.8314 503.901 28.6175L500.763 27.6554C499.525 27.2736 498.579 26.6703 497.922 25.8456C497.265 25.0209 496.937 24.074 496.937 23.0049C496.937 22.0733 497.158 21.2562 497.601 20.5536C498.059 19.8358 498.685 19.2784 499.48 18.8813C500.289 18.4689 501.205 18.2628 502.229 18.2628C503.252 18.2628 504.176 18.446 505.001 18.8126C505.841 19.1791 506.551 19.6755 507.131 20.3016C507.712 20.9125 508.139 21.6151 508.414 22.4093L506.49 23.2111C506.123 22.2489 505.573 21.5234 504.84 21.0347C504.107 20.5307 503.244 20.2787 502.252 20.2787C501.641 20.2787 501.099 20.3856 500.625 20.5995C500.167 20.798 499.808 21.0958 499.548 21.4929C499.304 21.8747 499.182 22.3329 499.182 22.8674C499.182 23.4936 499.38 24.0511 499.777 24.5398C500.175 25.0285 500.778 25.4027 501.587 25.6623L504.451 26.5099C505.795 26.9223 506.81 27.5103 507.498 28.2739C508.185 29.0375 508.529 29.9844 508.529 31.1146C508.529 32.0462 508.284 32.8709 507.796 33.5888C507.322 34.3066 506.658 34.8717 505.802 35.284C504.962 35.6811 503.985 35.8796 502.87 35.8796ZM511.816 35.6047V18.5377H522.926V20.5995H514.061V26.0059H522.468V28.0677H514.061V33.5429H522.926V35.6047H511.816ZM327.091 64.6047V47.5377H338.202V49.5995H329.336V55.0059H337.743V57.0677H329.336V62.5429H338.202V64.6047H327.091ZM339.334 64.6047L344.901 55.9452L339.472 47.5377H342.038L346.642 54.7081H345.68L350.285 47.5377H352.851L347.421 55.9452L352.988 64.6047H350.422L345.68 57.1823H346.642L341.877 64.6047H339.334ZM355.145 64.6047V47.5377H361.17C362.3 47.5377 363.293 47.7515 364.148 48.1791C365.004 48.6067 365.668 49.2176 366.141 50.0118C366.63 50.806 366.875 51.7376 366.875 52.8067C366.875 53.8758 366.63 54.8074 366.141 55.6016C365.668 56.3805 365.004 56.9914 364.148 57.4343C363.308 57.8619 362.316 58.0757 361.17 58.0757H357.39V64.6047H355.145ZM357.39 56.0139H361.239C361.926 56.0139 362.522 55.8841 363.026 55.6245C363.53 55.3648 363.919 54.9907 364.194 54.5019C364.469 54.0132 364.607 53.4481 364.607 52.8067C364.607 52.15 364.469 51.5849 364.194 51.1114C363.919 50.6227 363.53 50.2485 363.026 49.9889C362.522 49.7293 361.926 49.5995 361.239 49.5995H357.39V56.0139ZM369.911 64.6047V47.5377H381.021V49.5995H372.156V55.0059H380.563V57.0677H372.156V62.5429H381.021V64.6047H369.911ZM383.804 64.6047V47.5377H389.829C390.959 47.5377 391.952 47.7515 392.807 48.1791C393.662 48.6067 394.326 49.2176 394.8 50.0118C395.289 50.806 395.533 51.7376 395.533 52.8067C395.533 54.0132 395.228 55.0365 394.617 55.8765C394.006 56.7165 393.181 57.3197 392.142 57.6863L396.106 64.6047H393.494L389.325 57.2052L390.814 58.0757H386.049V64.6047H383.804ZM386.049 56.0139H389.897C390.569 56.0139 391.157 55.8841 391.661 55.6245C392.165 55.3648 392.555 54.9907 392.83 54.5019C393.12 54.0132 393.265 53.4481 393.265 52.8067C393.265 52.15 393.12 51.5849 392.83 51.1114C392.555 50.6227 392.165 50.2485 391.661 49.9889C391.157 49.7293 390.569 49.5995 389.897 49.5995H386.049V56.0139ZM398.659 64.6047V47.5377H400.904V64.6047H398.659ZM404.699 64.6047V47.5377H415.81V49.5995H406.944V55.0059H415.352V57.0677H406.944V62.5429H415.81V64.6047H404.699ZM418.592 64.6047V47.5377H420.47L430.275 61.3288L429.428 61.4204V47.5377H431.696V64.6047H429.817L420.058 50.722L420.837 50.6304V64.6047H418.592ZM443.363 64.8796C442.156 64.8796 441.041 64.6658 440.018 64.2382C439.01 63.7953 438.124 63.1768 437.361 62.3826C436.612 61.5884 436.032 60.6568 435.62 59.5877C435.207 58.5186 435.001 57.3503 435.001 56.0827C435.001 54.7998 435.207 53.6238 435.62 52.5547C436.032 51.4856 436.612 50.554 437.361 49.7598C438.109 48.9656 438.995 48.3547 440.018 47.9271C441.041 47.4842 442.156 47.2628 443.363 47.2628C444.539 47.2628 445.593 47.4689 446.524 47.8813C447.471 48.2937 448.265 48.8282 448.907 49.4849C449.563 50.1416 450.029 50.8442 450.304 51.5925L448.242 52.5318C447.845 51.5849 447.227 50.8213 446.387 50.2409C445.547 49.6453 444.539 49.3475 443.363 49.3475C442.172 49.3475 441.11 49.63 440.179 50.1951C439.262 50.7602 438.544 51.5467 438.025 52.5547C437.506 53.5627 437.246 54.7387 437.246 56.0827C437.246 57.4114 437.506 58.5797 438.025 59.5877C438.544 60.5957 439.262 61.3822 440.179 61.9473C441.11 62.5124 442.172 62.7949 443.363 62.7949C444.539 62.7949 445.547 62.5048 446.387 61.9244C447.227 61.3288 447.845 60.5575 448.242 59.6106L450.304 60.5499C450.029 61.2982 449.563 62.0008 448.907 62.6575C448.265 63.3142 447.471 63.8487 446.524 64.2611C445.593 64.6735 444.539 64.8796 443.363 64.8796ZM453.358 64.6047V47.5377H464.469V49.5995H455.603V55.0059H464.01V57.0677H455.603V62.5429H464.469V64.6047H453.358Z" fill="white"/>
</svg>

<svg width="567" height="80" fill="none" xmlns="http://www.w3.org/2000/svg"><path d="M.094.605h566.094v79H.094z"/><path d="M64.469 16.05c-6.899 0-13.121 2.98-17.475 7.729l7.793 11.873c1.678-3.71 5.386-6.295 9.682-6.295 5.87 0 10.645 4.821 10.645 10.748 0 5.926-4.775 10.748-10.645 10.748-3.97 0-7.251-2.316-9.264-5.464C44.954 29.357 46.5 31.612 43.182 26.381c-.806-1.272-1.774-2.59-2.017-2.848-4.342-4.606-10.468-7.483-17.247-7.483C10.782 16.05.094 26.843.094 40.105s10.688 24.054 23.824 24.054c6.934 0 13.184-3.007 17.54-7.797l-7.74-12.063c-1.622 3.849-5.403 6.553-9.8 6.553-5.87 0-10.645-4.82-10.645-10.747s4.775-10.748 10.645-10.748c3.915 0 7.236 2.214 9.192 5.338 8.042 12.83 8.79 13.826 12.27 19.282.897 1.405 2.346 3.235 2.82 3.682 4.26 4.028 9.983 6.5 16.269 6.5 13.136 0 23.824-10.791 23.824-24.054 0-13.263-10.688-24.054-23.824-24.054Z" fill="#03D9C5"/><path d="M110.829 65.605V18.67h8.568v46.935h-8.568Zm16.902 0V31.333h7.749v6.741l-.63-1.197c.798-2.058 2.1-3.612 3.906-4.662 1.848-1.092 3.99-1.638 6.426-1.638 2.52 0 4.746.546 6.678 1.638a11.538 11.538 0 0 1 4.599 4.6c1.092 1.931 1.638 4.178 1.638 6.74v22.05h-8.253V45.508c0-1.512-.294-2.814-.882-3.906-.588-1.092-1.407-1.932-2.457-2.52-1.008-.63-2.205-.945-3.591-.945-1.344 0-2.541.315-3.591.945-1.05.588-1.869 1.428-2.457 2.52-.588 1.092-.882 2.394-.882 3.906v20.097h-8.253Zm41.314 0v-26.9h-6.048v-7.372h6.048V30.2c0-2.604.525-4.809 1.575-6.615a10.736 10.736 0 0 1 4.536-4.22c1.932-.967 4.221-1.45 6.867-1.45.504 0 1.049.042 1.637.126.63.042 1.155.105 1.575.19v7.118a6.11 6.11 0 0 0-1.197-.126 7.642 7.642 0 0 0-.945-.063c-1.847 0-3.275.42-4.283 1.26-1.008.798-1.512 2.058-1.512 3.78v1.134h14.993v7.371h-14.993v26.9h-8.253Zm20.159 0V31.333h8.316v34.272h-8.316Zm15.185 0V31.333h7.749v6.741l-.63-1.197c.798-2.058 2.1-3.612 3.906-4.662 1.848-1.092 3.99-1.638 6.426-1.638 2.519 0 4.745.546 6.677 1.638a11.538 11.538 0 0 1 4.599 4.6c1.092 1.931 1.638 4.178 1.638 6.74v22.05h-8.253V45.508c0-1.512-.294-2.814-.882-3.906-.588-1.092-1.407-1.932-2.456-2.52-1.008-.63-2.205-.945-3.591-.945-1.344 0-2.541.315-3.591.945-1.05.588-1.869 1.428-2.457 2.52-.588 1.092-.882 2.394-.882 3.906v20.097h-8.253Zm37.344 0V31.333h8.253v34.272h-8.253Zm0-38.115v-8.82h8.253v8.82h-8.253Zm12.786 38.115 11.97-17.2-12.033-17.072h9.702l9.387 13.86h-4.347l9.387-13.86h9.639l-11.97 17.073 11.907 17.199h-9.639l-9.261-13.797h4.221l-9.261 13.797h-9.702Z" fill="#fff"/><path d="M307.293 15.867v48.108" stroke="#fff" stroke-width=".916"/><path d="M327.091 35.605V18.538h1.878l9.805 13.79-.847.092V18.538h2.268v17.067h-1.879l-9.759-13.883.779-.092v13.975h-2.245Zm16.913 0V18.538h10.813v2.061h-8.568v5.521h7.766v2.062h-7.766v7.423h-2.245Zm16.334 0V20.6h-4.627v-2.062h11.454v2.061h-4.559v15.006h-2.268Zm17.441.275c-.962 0-1.817-.176-2.566-.527-.748-.367-1.336-.878-1.764-1.535-.412-.672-.618-1.443-.618-2.314 0-.748.137-1.405.412-1.97a5.553 5.553 0 0 1 1.008-1.49 8.195 8.195 0 0 1 1.237-1.03c.428-.29.779-.52 1.054-.687l1.306-.756c.443-.26.87-.543 1.283-.848a4.5 4.5 0 0 0 1.031-1.054 2.43 2.43 0 0 0 .412-1.374c0-.596-.199-1.092-.596-1.49-.397-.396-.893-.595-1.489-.595-.595 0-1.092.198-1.489.596-.397.397-.596.9-.596 1.512 0 .412.1.817.298 1.214.199.397.443.779.733 1.145.291.352.581.68.871.985l9.278 9.943h-2.818l-8.132-8.568a18.283 18.283 0 0 1-1.1-1.26 7.56 7.56 0 0 1-.939-1.512 4.615 4.615 0 0 1-.367-1.856c0-.825.191-1.542.573-2.153a4.213 4.213 0 0 1 1.558-1.466 4.358 4.358 0 0 1 2.13-.527c.764 0 1.459.175 2.085.527a3.93 3.93 0 0 1 1.535 1.42c.382.61.572 1.313.572 2.108 0 .81-.19 1.52-.572 2.13a6.302 6.302 0 0 1-1.375 1.535c-.534.412-1.038.756-1.512 1.03l-1.283.78c-.381.244-.786.534-1.214.87-.427.321-.794.71-1.099 1.169-.306.443-.459.985-.459 1.626 0 .764.245 1.36.733 1.787.504.428 1.154.642 1.948.642.504 0 .954-.084 1.351-.252.397-.168.749-.39 1.054-.665.321-.275.603-.572.848-.893.244-.336.473-.665.687-.985l2.635-3.918h2.451l-3.093 4.72c-.229.381-.519.801-.87 1.26a9.009 9.009 0 0 1-1.238 1.305 6.285 6.285 0 0 1-1.672 1.031c-.626.26-1.367.39-2.222.39Zm16.741-.275V18.538h2.062l6.391 9.095h-1.054l6.346-9.095h2.062v17.067h-2.268V21.378l.802.252-6.346 8.935h-.183l-6.277-8.935.71-.252v14.227h-2.245Zm19.598 0V18.538h11.11v2.061h-8.865v5.407h8.407v2.062h-8.407v5.475h8.865v2.062h-11.11Zm16.871 0V20.6h-4.628v-2.062h11.455v2.061h-4.559v15.006h-2.268Zm6.2 0 6.117-17.067h2.657l6.117 17.067h-2.406l-1.397-4.01h-7.285l-1.397 4.01h-2.406Zm4.513-6.071h5.865l-3.253-9.37h.641l-3.253 9.37Zm15.789 6.07-6.163-17.066h2.406l5.223 15.005h-.481l5.223-15.005h2.405l-6.139 17.067h-2.474Zm10.767 0V18.539h11.11v2.061h-8.865v5.407h8.407v2.062h-8.407v5.475h8.865v2.062h-11.11Zm13.893 0V18.539h6.025c1.13 0 2.122.213 2.978.641a4.729 4.729 0 0 1 1.993 1.833c.488.794.733 1.726.733 2.795 0 1.206-.306 2.23-.917 3.07-.61.84-1.435 1.443-2.474 1.81l3.964 6.918h-2.612l-4.169-7.4 1.489.87h-4.765v6.53h-2.245Zm2.245-8.59h3.848c.672 0 1.26-.13 1.764-.39s.894-.633 1.169-1.122c.29-.489.435-1.054.435-1.695 0-.657-.145-1.222-.435-1.696a2.764 2.764 0 0 0-1.169-1.122c-.504-.26-1.092-.39-1.764-.39h-3.848v6.415Zm18.474 8.866c-1.084 0-2.077-.199-2.978-.596a6.836 6.836 0 0 1-2.291-1.672 6.426 6.426 0 0 1-1.352-2.36l1.948-.802c.412 1.1 1.023 1.948 1.832 2.543.825.58 1.787.87 2.887.87.672 0 1.26-.106 1.764-.32.504-.214.893-.512 1.168-.893a2.27 2.27 0 0 0 .436-1.375c0-.718-.207-1.283-.619-1.695-.397-.428-.985-.749-1.764-.962l-3.138-.963c-1.238-.381-2.184-.985-2.841-1.81a4.431 4.431 0 0 1-.985-2.84c0-.932.221-1.749.664-2.451a4.636 4.636 0 0 1 1.879-1.673c.809-.412 1.725-.618 2.749-.618 1.023 0 1.947.183 2.772.55a6.29 6.29 0 0 1 2.13 1.489 5.757 5.757 0 0 1 1.283 2.107l-1.924.802c-.367-.962-.917-1.688-1.65-2.176-.733-.504-1.596-.756-2.588-.756-.611 0-1.153.107-1.627.32a2.39 2.39 0 0 0-1.077.894c-.244.382-.366.84-.366 1.374 0 .627.198 1.184.595 1.673.398.489 1.001.863 1.81 1.122l2.864.848c1.344.412 2.359 1 3.047 1.764.687.764 1.031 1.71 1.031 2.84 0 .932-.245 1.757-.733 2.475-.474.718-1.138 1.283-1.994 1.695-.84.397-1.817.596-2.932.596Zm8.946-.275V18.538h11.11v2.061h-8.865v5.407h8.407v2.062h-8.407v5.475h8.865v2.062h-11.11Zm-184.725 29V47.538h11.111V49.6h-8.866v5.406h8.407v2.062h-8.407v5.475h8.866v2.062h-11.111Zm12.243 0 5.567-8.66-5.429-8.407h2.566l4.604 7.17h-.962l4.605-7.17h2.566l-5.43 8.407 5.567 8.66h-2.566l-4.742-7.423h.962l-4.765 7.423h-2.543Zm15.811 0V47.538h6.025c1.13 0 2.123.214 2.978.641a4.717 4.717 0 0 1 1.993 1.833c.489.794.734 1.726.734 2.795s-.245 2-.734 2.795c-.473.779-1.137 1.39-1.993 1.832-.84.428-1.832.642-2.978.642h-3.78v6.529h-2.245Zm2.245-8.591h3.849c.687 0 1.283-.13 1.787-.39s.893-.633 1.168-1.122c.275-.489.413-1.054.413-1.695 0-.657-.138-1.222-.413-1.696a2.762 2.762 0 0 0-1.168-1.122c-.504-.26-1.1-.39-1.787-.39h-3.849v6.415Zm12.521 8.59V47.539h11.11V49.6h-8.865v5.406h8.407v2.062h-8.407v5.475h8.865v2.062h-11.11Zm13.893 0V47.539h6.025c1.13 0 2.123.214 2.978.641a4.729 4.729 0 0 1 1.993 1.833c.489.794.733 1.726.733 2.795 0 1.206-.305 2.23-.916 3.07-.611.84-1.436 1.443-2.475 1.81l3.964 6.918h-2.612l-4.169-7.4 1.489.87h-4.765v6.53h-2.245Zm2.245-8.59h3.848c.672 0 1.26-.13 1.764-.39s.894-.633 1.169-1.122c.29-.489.435-1.054.435-1.695 0-.657-.145-1.222-.435-1.696a2.764 2.764 0 0 0-1.169-1.122c-.504-.26-1.092-.39-1.764-.39h-3.848v6.415Zm12.61 8.59V47.539h2.245v17.067h-2.245Zm6.04 0V47.539h11.111V49.6h-8.866v5.406h8.408v2.062h-8.408v5.475h8.866v2.062h-11.111Zm13.893 0V47.539h1.878l9.805 13.79-.847.092V47.538h2.268v17.067h-1.879l-9.759-13.883.779-.092v13.975h-2.245Zm24.771.276c-1.207 0-2.322-.214-3.345-.642a8.255 8.255 0 0 1-2.657-1.855 8.458 8.458 0 0 1-1.741-2.795c-.413-1.07-.619-2.238-.619-3.505 0-1.283.206-2.46.619-3.528.412-1.07.992-2.001 1.741-2.795a7.67 7.67 0 0 1 2.657-1.833c1.023-.443 2.138-.664 3.345-.664 1.176 0 2.23.206 3.161.618.947.413 1.741.947 2.383 1.604.656.657 1.122 1.36 1.397 2.108l-2.062.939a5.146 5.146 0 0 0-1.855-2.291c-.84-.596-1.848-.894-3.024-.894-1.191 0-2.253.283-3.184.848-.917.565-1.635 1.352-2.154 2.36-.519 1.008-.779 2.184-.779 3.528 0 1.328.26 2.497.779 3.505s1.237 1.794 2.154 2.36c.931.564 1.993.847 3.184.847 1.176 0 2.184-.29 3.024-.87a5.291 5.291 0 0 0 1.855-2.314l2.062.939c-.275.748-.741 1.45-1.397 2.108-.642.656-1.436 1.19-2.383 1.603-.931.413-1.985.619-3.161.619Zm9.995-.275V47.538h11.111V49.6h-8.866v5.406h8.407v2.062h-8.407v5.475h8.866v2.062h-11.111Z" fill="#fff"/></svg>
